icons/outline/time-duration-15.svg

<!--
tags: [quarter, fifteen, minutes, interval, timer, duration, span, moderate, clock, time]
category: System
version: "2.22"
unicode: "fad6"
-->
<svg
  xmlns="http://www.w3.org/2000/svg"
  width="24"
  height="24"
  viewBox="0 0 24 24"
  fill="none"
  stroke="currentColor"
  stroke-width="2"
  stroke-linecap="round"
  stroke-linejoin="round"
>
  <path d="M12 15h2a1 1 0 0 0 1 -1v-1a1 1 0 0 0 -1 -1h-2v-3h3m-6 0v6m-6 -3v.01m9 8.99v.01m-4.5 -16.81v.01m9 15.59v.01m-9 -.01v.01m-3.3 -3.31v.01m15.6 -.01v.01m-15.6 -9.01v.01m16.8 4.49a9 9 0 0 0 -9 -9" />
</svg>

<!--
tags: [quarter, fifteen, minutes, interval, timer, duration, span, moderate, clock, time]
category: System
version: "2.22"
unicode: "fad6"
-->
<svg
  xmlns="http://www.w3.org/2000/svg"
  width="24"
  height="24"
  viewBox="0 0 24 24"
  fill="none"
  stroke="currentColor"
  stroke-width="2"
  stroke-linecap="round"
  stroke-linejoin="round"
>
    <path d="M12 15h2a1 1 0 0 0 1 -1v-1a1 1 0 0 0 -1 -1h-2v-3h3M9 9v6M3 12v.01M12 21v.01M7.5 4.2v.01M16.5 19.8v.01M7.5 19.8v.01M4.2 16.5v.01M19.8 16.5v.01M4.2 7.5v.01M21 12a9 9 0 0 0 -9 -9" />
</svg>
